flaticon/household/radiator.svg

<svg xmlns="http://www.w3.org/2000/svg" width="32" height="32" viewBox="0 0 24 24">
    <path d="M 23.601562 4.800781 C 23.378906 4.800781 23.199219 4.980469 23.199219 5.199219 L 23.199219 5.601562 L 22.800781 5.601562 L 22.800781 4.398438 L 21.601562 4.398438 L 21.601562 2.800781 L 19.199219 2.800781 L 19.199219 4.398438 L 18.398438 4.398438 L 18.398438 4 C 18.398438 3.339844 17.863281 2.800781 17.199219 2.800781 C 16.539062 2.800781 16 3.339844 16 4 L 16 4.398438 L 15.199219 4.398438 L 15.199219 4 C 15.199219 3.339844 14.660156 2.800781 14 2.800781 C 13.339844 2.800781 12.800781 3.339844 12.800781 4 L 12.800781 4.398438 L 12 4.398438 L 12 4 C 12 3.339844 11.460938 2.800781 10.800781 2.800781 C 10.136719 2.800781 9.601562 3.339844 9.601562 4 L 9.601562 4.398438 L 8.800781 4.398438 L 8.800781 4 C 8.800781 3.339844 8.261719 2.800781 7.601562 2.800781 C 6.9375 2.800781 6.398438 3.339844 6.398438 4 L 6.398438 4.398438 L 5.601562 4.398438 L 5.601562 4 C 5.601562 3.339844 5.0625 2.800781 4.398438 2.800781 C 3.738281 2.800781 3.199219 3.339844 3.199219 4 L 3.199219 4.398438 L 2.398438 4.398438 L 2.398438 2.800781 L 0 2.800781 L 0 21.199219 L 2.398438 21.199219 L 2.398438 19.601562 L 3.199219 19.601562 L 3.199219 20 C 3.199219 20.660156 3.738281 21.199219 4.398438 21.199219 C 5.0625 21.199219 5.601562 20.660156 5.601562 20 L 5.601562 19.601562 L 6.398438 19.601562 L 6.398438 20 C 6.398438 20.660156 6.9375 21.199219 7.601562 21.199219 C 8.261719 21.199219 8.800781 20.660156 8.800781 20 L 8.800781 19.601562 L 9.601562 19.601562 L 9.601562 20 C 9.601562 20.660156 10.136719 21.199219 10.800781 21.199219 C 11.460938 21.199219 12 20.660156 12 20 L 12 19.601562 L 12.800781 19.601562 L 12.800781 20 C 12.800781 20.660156 13.339844 21.199219 14 21.199219 C 14.660156 21.199219 15.199219 20.660156 15.199219 20 L 15.199219 19.601562 L 16 19.601562 L 16 20 C 16 20.660156 16.539062 21.199219 17.199219 21.199219 C 17.863281 21.199219 18.398438 20.660156 18.398438 20 L 18.398438 19.601562 L 19.199219 19.601562 L 19.199219 21.199219 L 21.601562 21.199219 L 21.601562 20.800781 L 22.800781 20.800781 L 22.800781 19.601562 L 23.601562 19.601562 C 23.820312 19.601562 24 19.421875 24 19.199219 C 24 18.980469 23.820312 18.800781 23.601562 18.800781 L 22.800781 18.800781 L 22.800781 17.601562 L 21.601562 17.601562 L 21.601562 7.601562 L 22.800781 7.601562 L 22.800781 6.398438 L 23.199219 6.398438 L 23.199219 6.800781 C 23.199219 7.019531 23.378906 7.199219 23.601562 7.199219 C 23.820312 7.199219 24 7.019531 24 6.800781 L 24 5.199219 C 24 4.980469 23.820312 4.800781 23.601562 4.800781 Z M 1.601562 20.398438 L 0.800781 20.398438 L 0.800781 3.601562 L 1.601562 3.601562 Z M 2.398438 18.800781 L 2.398438 5.199219 L 3.199219 5.199219 L 3.199219 18.800781 Z M 4.800781 20 C 4.800781 20.222656 4.621094 20.398438 4.398438 20.398438 C 4.179688 20.398438 4 20.222656 4 20 L 4 4 C 4 3.777344 4.179688 3.601562 4.398438 3.601562 C 4.621094 3.601562 4.800781 3.777344 4.800781 4 Z M 5.601562 18.800781 L 5.601562 5.199219 L 6.398438 5.199219 L 6.398438 18.800781 Z M 8 20 C 8 20.222656 7.820312 20.398438 7.601562 20.398438 C 7.378906 20.398438 7.199219 20.222656 7.199219 20 L 7.199219 4 C 7.199219 3.777344 7.378906 3.601562 7.601562 3.601562 C 7.820312 3.601562 8 3.777344 8 4 Z M 8.800781 18.800781 L 8.800781 5.199219 L 9.601562 5.199219 L 9.601562 18.800781 Z M 11.199219 20 C 11.199219 20.222656 11.019531 20.398438 10.800781 20.398438 C 10.578125 20.398438 10.398438 20.222656 10.398438 20 L 10.398438 4 C 10.398438 3.777344 10.578125 3.601562 10.800781 3.601562 C 11.019531 3.601562 11.199219 3.777344 11.199219 4 Z M 12 18.800781 L 12 5.199219 L 12.800781 5.199219 L 12.800781 18.800781 Z M 14.398438 20 C 14.398438 20.222656 14.21875 20.398438 14 20.398438 C 13.78125 20.398438 13.601562 20.222656 13.601562 20 L 13.601562 4 C 13.601562 3.777344 13.78125 3.601562 14 3.601562 C 14.21875 3.601562 14.398438 3.777344 14.398438 4 Z M 15.199219 18.800781 L 15.199219 5.199219 L 16 5.199219 L 16 18.800781 Z M 17.601562 20 C 17.601562 20.222656 17.421875 20.398438 17.199219 20.398438 C 16.980469 20.398438 16.800781 20.222656 16.800781 20 L 16.800781 4 C 16.800781 3.777344 16.980469 3.601562 17.199219 3.601562 C 17.421875 3.601562 17.601562 3.777344 17.601562 4 Z M 18.398438 18.800781 L 18.398438 5.199219 L 19.199219 5.199219 L 19.199219 18.800781 Z M 22 18.398438 L 22 20 L 21.601562 20 L 21.601562 18.398438 Z M 20.800781 17.601562 L 20.800781 20.398438 L 20 20.398438 L 20 3.601562 L 20.800781 3.601562 Z M 22 6.800781 L 21.601562 6.800781 L 21.601562 5.199219 L 22 5.199219 Z M 22 6.800781"/>
</svg>

<svg xmlns="http://www.w3.org/2000/svg" width="32" height="32" viewBox="0 0 24 24">
    <path d="M23.602 4.8a.401.401 0 0 0-.403.4v.402h-.398V4.398h-1.2V2.801H19.2v1.597h-.8V4A1.2 1.2 0 0 0 16 4v.398h-.8V4c0-.66-.54-1.2-1.2-1.2-.66 0-1.2.54-1.2 1.2v.398H12V4a1.2 1.2 0 1 0-2.398 0v.398H8.8V4a1.202 1.202 0 0 0-2.403 0v.398h-.796V4A1.202 1.202 0 0 0 3.2 4v.398h-.802V2.801H0v18.398h2.398v-1.597H3.2V20a1.202 1.202 0 0 0 2.403 0v-.398h.796V20A1.202 1.202 0 0 0 8.8 20v-.398h.802V20A1.2 1.2 0 0 0 12 20v-.398h.8V20c0 .66.54 1.2 1.2 1.2.66 0 1.2-.54 1.2-1.2v-.398h.8V20a1.2 1.2 0 1 0 2.398 0v-.398h.801v1.597h2.403v-.398H22.8v-1.2h.8a.401.401 0 0 0 0-.8h-.8v-1.2h-1.2v-10h1.2V6.399h.398v.403a.401.401 0 0 0 .801 0V5.199a.4.4 0 0 0-.398-.398zm-22 15.598H.8V3.602h.8zm.796-1.597V5.199H3.2v13.602zM4.801 20c0 .223-.18.398-.403.398A.398.398 0 0 1 4 20V4c0-.223.18-.398.398-.398.223 0 .403.175.403.398zm.8-1.2V5.2h.797v13.6zM8 20c0 .223-.18.398-.398.398A.398.398 0 0 1 7.199 20V4c0-.223.18-.398.403-.398.218 0 .398.175.398.398zm.8-1.2V5.2h.802v13.6zm2.4 1.2c0 .223-.18.398-.4.398a.398.398 0 0 1-.402-.398V4c0-.223.18-.398.403-.398.219 0 .398.175.398.398zm.8-1.2V5.2h.8v13.6zm2.398 1.2a.398.398 0 1 1-.796 0V4a.398.398 0 1 1 .796 0zm.801-1.2V5.2H16v13.6zm2.403 1.2c0 .223-.18.398-.403.398a.398.398 0 0 1-.398-.398V4c0-.223.18-.398.398-.398.223 0 .403.175.403.398zm.796-1.2V5.2h.801v13.6zM22 18.399V20h-.398v-1.602zm-1.2-.796v2.796H20V3.602h.8zM22 6.8h-.398V5.199H22zm0 0"/>
</svg>
